X:1
T:Freely, Freely, Freely
T:Freely, Freely, Freely
T:Charles Hutchinson Gabriel
T:Clara Louisa Shattuck Eager, 1899
T:Public Domain Courtesy of the Cyber Hymnal™
C:Charles Hutchinson Gabriel
Z:Public Domain
Z:Courtesy of the Cyber Hymnal™
%%score 1 ( 2 3 )
L:1/8
Q:1/4=85
M:4/4
K:D
V:1 treble 
V:2 bass 
V:3 bass 
V:1
"^Duet or Solo" [DF][DF][DF][EG] [FA][FA] [FA]2 |"^Chorus" [GB][Bd][Ac][GB] [FA]2 [DF]2 | %2
w: 1.~That is how the Fa- ther gave—|Free- ly, free- ly, free- ly;|
w: 2.~So to Him our- selves we give—|Free- ly, free- ly, free- ly;|
w: 3.~Let the liv- ing wa- ters flow—|Free- ly, free- ly, free- ly;|
"^Duet" [CE][CE][CE][DF] [EG][EG] [EG]2 |"^Chorus" [GB][Ac][GB][Ac] [GB]2 [FA]2 | %4
w: That’s how Je- sus came to save—|Free- ly, free- ly, free- ly.|
w: For His sake hence- forth to live—|Free- ly, free- ly, free- ly.|
w: Let the Gos- pel mes- sage go—|Free- ly, free- ly, free- ly.|
"^Duet" [DF][FA][FA][Ad] [Ac][GB] [GB]2 | [^GB][GB][Gc][Gd] [=Gd][Gc] [Gc]2 | %6
w: ’Twas His mer- cy took us in;|Dark in deed our lot had been.|
w: Lord, our self- ish- ness des- troy!|Time, and strength and wealth and joy,|
w: That’s a glor- ious work to do!|To the Great Com- mis- sion true;|
 [Fd][Fd][Gc][Ad] [Ac][GB] [GB]2 |"^Chorus" [GA][GA][Gc][GA] [Fd]2 [Fd]2 |] %8
w: Had He not a- toned for sin|Free- ly, free- ly, free- ly.|
w: For Thy cause will we em- ploy|Free- ly, free- ly, free- ly.|
w: Give as He has giv- en you—|Free- ly, free- ly, free- ly.|
V:2
 D,2 A,2 D,2 D2 | [G,D][G,D][G,D][G,D] [D,D]2 [D,A,]2 | A,,2 A,2 A,,2 A,2 | %3
 [A,,C][A,,C][A,,C][A,,C] [D,D]2 [D,D]2 | [D,A,][D,D][D,D][F,D] [G,D][G,D] [G,D]2 | %5
 [E,D][E,D][E,C][E,B,] A,A, A,2 | [D,A,][D,A,][E,A,][F,D] [G,D][G,D] [G,D]2 | %7
 [A,C][A,C]A,A, [D,A,]2 [D,A,]2 |] %8
V:3
 x8 | x8 | x8 | x8 | x8 | x4 A,A, A,2 | x8 | x2 A,A, x4 |] %8

